packages/ffe-icons/icons/filled/sm/remember_me.svg

<svg xmlns="http://www.w3.org/2000/svg" height="20" viewBox="0 -960 960 960" width="20"><path d="M276.309-68.001q-26.527 0-45.417-18.89-18.891-18.891-18.891-45.418v-695.382q0-26.527 18.891-45.417 18.89-18.891 45.417-18.891h407.382q26.527 0 45.417 18.891 18.891 18.89 18.891 45.417v695.382q0 26.527-18.891 45.417-18.89 18.89-45.417 18.89H276.309ZM480-384q57 0 111.5 15.101T696-323.692v-406.309H264v406.309q49-30.106 104-45.207Q423-384 480-384Zm.045-58.001q-45.814 0-77.929-32.07t-32.115-77.884q0-45.814 32.07-77.929t77.884-32.115q45.814 0 77.929 32.07t32.115 77.884q0 45.814-32.07 77.929t-77.884 32.115Z"/></svg>

<svg xmlns="http://www.w3.org/2000/svg" height="20" viewBox="0 -960 960 960" width="20"><path d="M276.31-68q-26.53 0-45.42-18.89T212-132.31v-695.38q0-26.53 18.89-45.42T276.31-892h407.38q26.53 0 45.42 18.89T748-827.69v695.38q0 26.53-18.89 45.42T683.69-68H276.31ZM480-384q57 0 111.5 15.1T696-323.69V-730H264v406.31q49-30.11 104-45.21Q423-384 480-384Zm.05-58q-45.82 0-77.93-32.07Q370-506.14 370-551.95q0-45.82 32.07-77.93Q434.14-662 479.95-662q45.82 0 77.93 32.07Q590-597.86 590-552.05q0 45.82-32.07 77.93Q525.86-442 480.05-442Z"/></svg>
